X:755
T:Cock o' the North, The
S:Memory
Z:Nigel Gatherer
M:6/8
L:1/8
K:A
A | c>dc cBA | cde f2e | c>dc cBA | B3- B2
A | c>dc cBA | cde f2e | c>dc BAB | A3- A2 :|
e | a2e  f2e | a2e f2e | c>dc cBA | B3- B2
e | a2e  f2e | a2e f2e | c>dc BAB | A3- A2 :|
